DevCon_2019/Icons/SVG/icon_angle_down.svg

<svg height="12" viewBox="0 0 20 12" width="20" xmlns="http://www.w3.org/2000/svg"><path d="m801.024579 139.928552c0 .160715-.080357.341519-.200893.462054l-9.361618 9.361619c-.120536.120536-.30134.200893-.462054.200893-.160715 0-.341518-.080357-.462054-.200893l-9.361619-9.361619c-.120535-.120535-.200893-.301339-.200893-.462054 0-.160714.080358-.341518.200893-.462054l1.004466-1.004465c.120536-.120536.28125-.200893.462054-.200893.160714 0 .341518.080357.462054.200893l7.895099 7.895098 7.895098-7.895098c.120536-.120536.30134-.200893.462055-.200893.160714 0 .341518.080357.462054.200893l1.004465 1.004465c.120536.120536.200893.30134.200893.462054z" fill="#0b132b" fill-rule="evenodd" opacity=".202358" transform="translate(-781 -138)"/></svg>

<?xml version="1.0" encoding="UTF-8"?>
<svg width="20px" height="12px" viewBox="0 0 20 12" version="1.1" xmlns="http://www.w3.org/2000/svg" xmlns:xlink="http://www.w3.org/1999/xlink">
    <!-- Generator: Sketch 52.6 (67491) - http://www.bohemiancoding.com/sketch -->
    <title>angle-down - FontAwesome</title>
    <desc>Created with Sketch.</desc>
    <g id="Page-1" stroke="none" stroke-width="1" fill="none" fill-rule="evenodd" opacity="0.202357701">
        <g id="DESKTOP-1024PX" transform="translate(-876.000000, -3072.000000)" fill="#0B132B">
            <g id="EVENT-AGENDA" transform="translate(-98.000000, 2685.000000)">
                <g id="DAY-1-AGENDA-Copy-3" transform="translate(193.000000, 249.000000)">
                    <path d="M801.024579,139.928552 C801.024579,140.089267 800.944222,140.270071 800.823686,140.390606 L791.462068,149.752225 C791.341532,149.872761 791.160728,149.953118 791.000014,149.953118 C790.839299,149.953118 790.658496,149.872761 790.53796,149.752225 L781.176341,140.390606 C781.055806,140.270071 780.975448,140.089267 780.975448,139.928552 C780.975448,139.767838 781.055806,139.587034 781.176341,139.466498 L782.180807,138.462033 C782.301343,138.341497 782.462057,138.26114 782.642861,138.26114 C782.803575,138.26114 782.984379,138.341497 783.104915,138.462033 L791.000014,146.357131 L798.895112,138.462033 C799.015648,138.341497 799.196452,138.26114 799.357167,138.26114 C799.517881,138.26114 799.698685,138.341497 799.819221,138.462033 L800.823686,139.466498 C800.944222,139.587034 801.024579,139.767838 801.024579,139.928552 Z" id="angle-down---FontAwesome"></path>
                </g>
            </g>
        </g>
    </g>
</svg>
